X: 39460
T: Tarbolton, The
R: reel
M: 4/4
K: Edorian
(3Bcd AG FD Df|aa (3faf de fg|aa (3faf de fa|b2 ab ef gb|
ef gb ef gb|aa (3faf de fg|aa (3faf de fa|ag gf fe fd|
(3Bcd AG FD (3eee|=f3d e=c AG|FD (3EFG Ad =cA|GG (3EFG Ad de|
fd ed (3Bcd eg|fd (3ddd fd AG|FD (3DDD Ad =cA|GG (3EFG Ad dc|
(3AcA GE FD De|f2 fd e=c AG|(3FED (3EFG Ad =cA|GG (3EFG Ad de|
fd ed (3Bcd eg|fd ed fd AG|(3FED (3EFG Ad =cA|GG (3EFG Ad dc|
AB GE FD Df|a2 (3faf de fg|aa (3faf de fa|b2 ab ef gb|
ef gb ef gb|aa (3faf de fg|aa (3faf de fa|ag gf fe (3fed|
(3Bcd AG FD DD|a2 ~a3 a aa|aa fa de fa|b2 ab ef gb|
ef gb ef gb|ab af de fg|ab fa de fa|b^g af =ge fd|
(3B=cd AG FD DA|Be eB e2 BA|GB Af gf eg|fd eA dB AF|
GB AG FD DA|B3d ef ge|fd df ed BA|GB AG (3EFG A=c|
(3BAG GF GE EE|Be ee e2 BA|GB Af gf eg|fd eA dB AF|
GB AG FD DA|B3d ef ge|fd df ed BA|GB AG (3EFG A=c|
(3BAG GF GE EE|gf ef ge be|ge be gf ef|d2 fd Ad fd|
Ad AG FD EF|G3A F3A|e3f gf ed|=c3B AB FA|(3B=cd (3AGF GE EE|
gf ef ge be|ge be gf e^g|^ga (3=gfe (3fed (3edc|dB AG FD EF|GB AG FA GF|

